X:1514
T:Deutscher Tanz
O:england
C:Joseph Haydn
V:1 Program 1 0
V:2 Program 1 0 bass up
V:3 Program 1 0 bass merge down
M:3/4
L:1/8
K:F
V:1
AB|c2c2c2|c3faf|fedcB2|[G4B4][F2A2]|
V:2
z2|F,CA,CA,C|F,CA,CA,C|G,CB,CB,C|C4C2|
V:3
z2|F,6|F,6|G,6|E,4F,2|
V:1
AGBAcB|^cd=cBAG|F4[EA]G|F2z2:|
V:2
D6-|D4B,2|A,4B,2|A,2z2:|
V:3
B,6-|B,4B,,2|C,4C,2|F,2F,,2:|
V:1
|:[FA][EG]|[E4G4][GB][FA]|[F4A4]c=B|=BdfdBd|c3_BAB|
V:2
|:z2|z6|z6|z6|z6|
V:3
|:z2|C,2C2z2|C,2C2z2|[C,2D,2F,2][C,2D,2F,2][C,2D,2F,2]|[C,2E,2]z2z2|
V:1
c2c2c2|c3faf|fedcB2|[G4B4][F2A2]|
V:2
F,CA,CA,C|F,CA,CA,C|G,CB,CB,C|C4C2|
V:3
F,6|F,6|G,6|E,4F,2|
V:1
AGBAcB|^cd=cBAG|F4[EA]G|F2z2:|
V:2
D6-|D4B,2|A,4B,2|A,2z2:|
V:3
B,6-|B,4B,,2|C,4C,2|F,2F,,2:|


